static/logos/github-wordmark-color.svg

<svg width="135" height="48" viewBox="0 0 135 48" fill="none" xmlns="http://www.w3.org/2000/svg">
<path fill-rule="evenodd" clip-rule="evenodd" d="M17.43 5C7.79992 5 0 12.7999 0 22.43C0 30.1428 4.98934 36.6572 11.9178 38.9667C12.7893 39.1192 13.1161 38.5963 13.1161 38.1388C13.1161 37.7248 13.0943 36.3522 13.0943 34.8924C8.715 35.6986 7.58205 33.8249 7.23345 32.8444C7.03736 32.3433 6.18765 30.7964 5.44687 30.3824C4.83682 30.0556 3.96532 29.2495 5.42509 29.2277C6.7977 29.2059 7.77814 30.4914 8.10495 31.0143C9.67365 33.6506 12.1792 32.9098 13.1814 32.4522C13.3339 31.3193 13.7915 30.5567 14.2926 30.121C10.4144 29.6852 6.36195 28.1819 6.36195 21.5149C6.36195 19.6194 7.03736 18.0507 8.14852 16.8306C7.97422 16.3949 7.36417 14.6083 8.32282 12.2117C8.32282 12.2117 9.78259 11.7541 13.1161 13.9982C14.5105 13.6061 15.992 13.41 17.4736 13.41C18.9551 13.41 20.4367 13.6061 21.8311 13.9982C25.1646 11.7323 26.6243 12.2117 26.6243 12.2117C27.583 14.6083 26.9729 16.3949 26.7986 16.8306C27.9098 18.0507 28.5852 19.5976 28.5852 21.5149C28.5852 28.2037 24.5109 29.6852 20.6328 30.121C21.2646 30.6657 21.8093 31.7115 21.8093 33.3455C21.8093 35.6768 21.7875 37.5505 21.7875 38.1388C21.7875 38.5963 22.1143 39.141 22.9858 38.9667C26.446 37.7986 29.4527 35.5748 31.5828 32.6083C33.7129 29.6418 34.8591 26.082 34.86 22.43C34.86 12.7999 27.0601 5 17.43 5Z" fill="#24292E"/>
<path d="M81.2557 30.843H81.2151C81.2334 30.843 81.2456 30.8633 81.2639 30.8654H81.2761L81.2557 30.845V30.843ZM81.2639 30.8654C81.0748 30.8674 80.5989 30.9671 80.0966 30.9671C78.5105 30.9671 77.9615 30.235 77.9615 29.2793V22.9124H81.1947C81.3777 22.9124 81.5201 22.7497 81.5201 22.526V19.0691C81.5201 18.886 81.3574 18.7234 81.1947 18.7234H77.9615V14.4327C77.9615 14.27 77.8598 14.1683 77.6768 14.1683H73.2844C73.1014 14.1683 72.9997 14.27 72.9997 14.4327V18.8454C72.9997 18.8454 70.7832 19.3944 70.6409 19.4147C70.4782 19.4554 70.3765 19.5978 70.3765 19.7604V22.526C70.3765 22.7497 70.5392 22.9124 70.7222 22.9124H72.9794V29.5822C72.9794 34.544 76.4363 35.0524 78.7952 35.0524C79.873 35.0524 81.1744 34.7067 81.3777 34.605C81.4998 34.5643 81.5608 34.422 81.5608 34.2796V31.2294C81.5636 31.1429 81.5351 31.0582 81.4806 30.991C81.426 30.9238 81.3491 30.8785 81.2639 30.8633V30.8654ZM129.45 26.3896C129.45 22.709 127.965 22.221 126.399 22.3837C125.179 22.465 124.203 23.075 124.203 23.075V30.233C124.203 30.233 125.2 30.9244 126.684 30.965C128.779 31.026 129.45 30.2736 129.45 26.3896ZM134.391 26.0643C134.391 33.0392 132.134 35.032 128.189 35.032C124.854 35.032 123.064 33.3442 123.064 33.3442C123.064 33.3442 122.983 34.2796 122.881 34.4016C122.82 34.5236 122.719 34.5643 122.597 34.5643H119.587C119.384 34.5643 119.201 34.4016 119.201 34.2186L119.242 11.6264C119.242 11.4434 119.404 11.2808 119.587 11.2808H123.919C124.102 11.2808 124.264 11.4434 124.264 11.6264V19.2927C124.264 19.2927 125.932 18.215 128.372 18.215L128.352 18.1743C130.792 18.1743 134.391 19.0894 134.391 26.0643ZM116.659 18.7234H112.389C112.165 18.7234 112.043 18.886 112.043 19.1097V30.172C112.043 30.172 110.924 30.965 109.399 30.965C107.874 30.965 107.427 30.2736 107.427 28.7485V19.0894C107.427 18.9064 107.264 18.7437 107.081 18.7437H102.729C102.546 18.7437 102.384 18.9064 102.384 19.0894V29.4806C102.384 33.9543 104.885 35.0727 108.322 35.0727C111.148 35.0727 113.446 33.5069 113.446 33.5069C113.446 33.5069 113.548 34.3 113.609 34.422C113.649 34.5236 113.792 34.605 113.934 34.605H116.659C116.883 34.605 117.005 34.4423 117.005 34.2593L117.045 19.0691C117.045 18.886 116.883 18.7234 116.659 18.7234ZM68.465 18.703H64.1337C63.9507 18.703 63.788 18.886 63.788 19.1097V34.0356C63.788 34.4423 64.0523 34.5847 64.398 34.5847H68.3023C68.709 34.5847 68.8107 34.4016 68.8107 34.0356V19.0487C68.8107 18.8657 68.648 18.703 68.465 18.703ZM66.3299 11.8298C64.7641 11.8298 63.5236 13.0702 63.5236 14.636C63.5236 16.2018 64.7641 17.4423 66.3299 17.4423C67.855 17.4423 69.0954 16.2018 69.0954 14.636C69.0954 13.0702 67.855 11.8298 66.3299 11.8298ZM99.8623 11.3214H95.5716C95.3886 11.3214 95.2259 11.4841 95.2259 11.6671V19.9841H88.495V11.6671C88.495 11.4841 88.3323 11.3214 88.1493 11.3214H83.818C83.6349 11.3214 83.4723 11.4841 83.4723 11.6671V34.2593C83.4723 34.4423 83.6553 34.605 83.818 34.605H88.1493C88.3323 34.605 88.495 34.4423 88.495 34.2593V24.6002H95.2259L95.1852 34.2593C95.1852 34.4423 95.3479 34.605 95.5309 34.605H99.8623C100.045 34.605 100.208 34.4423 100.208 34.2593V11.6671C100.208 11.4841 100.045 11.3214 99.8623 11.3214ZM61.4901 21.3262V32.9985C61.4901 33.0799 61.4698 33.2222 61.3681 33.2629C61.3681 33.2629 58.8262 35.0727 54.6372 35.0727C49.5738 35.0727 43.575 33.4866 43.575 23.0344C43.575 12.5822 48.8214 10.4267 53.9458 10.447C58.3789 10.447 60.1683 11.4434 60.453 11.6264C60.5344 11.7281 60.575 11.8095 60.575 11.9111L59.721 15.5308C59.721 15.7138 59.538 15.9375 59.3143 15.8765C58.5822 15.6528 57.4841 15.2054 54.9016 15.2054C51.9123 15.2054 48.6994 16.0595 48.6994 22.7904C48.6994 29.5212 51.7497 30.3143 53.9458 30.3143C55.8167 30.3143 56.4877 30.0906 56.4877 30.0906V25.4136H53.4985C53.2748 25.4136 53.1121 25.2509 53.1121 25.0679V21.3262C53.1121 21.1432 53.2748 20.9805 53.4985 20.9805H61.1038C61.3274 20.9805 61.4901 21.1432 61.4901 21.3262Z" fill="#24292E"/>
</svg>

<svg xmlns="http://www.w3.org/2000/svg" width="180" height="64" fill="none" viewBox="0 0 135 48"><path fill="#24292E" fill-rule="evenodd" d="M17.43 5C7.8 5 0 12.8 0 22.43c0 7.713 4.99 14.227 11.918 16.537.871.152 1.198-.37 1.198-.828 0-.414-.022-1.787-.022-3.247-4.379.807-5.512-1.067-5.86-2.048-.197-.5-1.046-2.048-1.787-2.462-.61-.326-1.482-1.133-.022-1.154 1.373-.022 2.353 1.263 2.68 1.786 1.569 2.637 4.074 1.896 5.076 1.438.153-1.133.61-1.895 1.112-2.331-3.879-.436-7.931-1.94-7.931-8.606 0-1.896.675-3.464 1.787-4.684-.175-.436-.785-2.223.174-4.62 0 0 1.46-.457 4.793 1.787a16.2 16.2 0 0 1 4.358-.588c1.481 0 2.963.196 4.357.588 3.334-2.266 4.793-1.786 4.793-1.786.959 2.396.349 4.183.175 4.619 1.11 1.22 1.786 2.767 1.786 4.684 0 6.689-4.074 8.17-7.952 8.606.632.545 1.176 1.59 1.176 3.225 0 2.33-.021 4.205-.021 4.793 0 .457.326 1.002 1.198.828A17.46 17.46 0 0 0 34.86 22.43C34.86 12.8 27.06 5 17.43 5" clip-rule="evenodd"/><path fill="#24292E" d="M81.256 30.843h-.04c.017 0 .03.02.048.022h.012l-.02-.02zm.008.022c-.19.002-.665.102-1.167.102-1.587 0-2.135-.732-2.135-1.688v-6.367h3.233c.183 0 .325-.162.325-.386v-3.457c0-.183-.163-.346-.325-.346h-3.233v-4.29c0-.163-.102-.265-.285-.265h-4.393c-.183 0-.284.102-.284.265v4.412s-2.217.55-2.36.57a.35.35 0 0 0-.264.345v2.766c0 .224.163.386.346.386h2.257v6.67c0 4.962 3.457 5.47 5.816 5.47 1.078 0 2.38-.345 2.583-.447.122-.04.183-.183.183-.325v-3.05a.36.36 0 0 0-.297-.367zm48.186-4.475c0-3.681-1.485-4.169-3.051-4.006-1.22.081-2.196.691-2.196.691v7.158s.997.691 2.481.732c2.095.061 2.766-.691 2.766-4.575m4.941-.326c0 6.975-2.257 8.968-6.202 8.968-3.335 0-5.125-1.688-5.125-1.688s-.081.936-.183 1.058c-.061.122-.162.162-.284.162h-3.01c-.203 0-.386-.162-.386-.345l.041-22.593c0-.183.162-.345.345-.345h4.332c.183 0 .345.162.345.345v7.667s1.668-1.078 4.108-1.078l-.02-.04c2.44 0 6.039.914 6.039 7.89m-17.732-7.34h-4.27c-.224 0-.346.162-.346.386v11.062s-1.119.793-2.644.793-1.972-.691-1.972-2.216v-9.66a.357.357 0 0 0-.346-.345h-4.352a.356.356 0 0 0-.345.345v10.392c0 4.473 2.501 5.592 5.938 5.592 2.826 0 5.124-1.566 5.124-1.566s.102.793.163.915c.04.102.183.183.325.183h2.725c.224 0 .346-.163.346-.346l.04-15.19c0-.183-.162-.346-.386-.346m-48.194-.021h-4.331c-.183 0-.346.183-.346.407v14.926c0 .406.264.549.61.549h3.904c.407 0 .509-.183.509-.55V19.05a.356.356 0 0 0-.346-.346M66.33 11.83a2.786 2.786 0 0 0-2.806 2.806 2.786 2.786 0 0 0 2.806 2.806c1.525 0 2.765-1.24 2.765-2.806s-1.24-2.806-2.765-2.806m33.532-.509h-4.29a.356.356 0 0 0-.346.346v8.317h-6.731v-8.317a.356.356 0 0 0-.346-.346h-4.331a.356.356 0 0 0-.346.346V34.26c0 .183.183.346.346.346h4.331a.356.356 0 0 0 .346-.346V24.6h6.73l-.04 9.66c0 .182.163.345.346.345h4.331a.357.357 0 0 0 .346-.346V11.667a.357.357 0 0 0-.346-.346M61.49 21.326V33c0 .08-.02.223-.122.264 0 0-2.542 1.81-6.73 1.81-5.064 0-11.063-1.586-11.063-12.039s5.246-12.607 10.37-12.587c4.434 0 6.223.996 6.508 1.18.081.101.122.182.122.284l-.854 3.62c0 .183-.183.406-.407.345-.732-.223-1.83-.67-4.412-.67-2.99 0-6.203.854-6.203 7.584 0 6.731 3.05 7.524 5.247 7.524 1.87 0 2.542-.223 2.542-.223v-4.677h-2.99c-.223 0-.386-.163-.386-.346v-3.742c0-.183.163-.346.386-.346h7.606c.223 0 .386.163.386.346"/></svg>
